assets/1. 1-F/Canned food/Color/Canned.Food-color.svg

<svg width="100%" height="100%" viewBox="0 0 32 32" fill="none" xmlns="http://www.w3.org/2000/svg">
<path d="M24.82 27.04H6.52C5.68 27.04 5 27.73 5 28.57C5 29.41 5.68 30.09 6.52 30.09H24.82C25.66 30.09 26.34 29.41 26.34 28.57C26.34 27.73 25.66 27.04 24.82 27.04Z" fill="url(#paint0_linear_18_32248)"/>
<path d="M24.82 27.04H6.52C5.68 27.04 5 27.73 5 28.57C5 29.41 5.68 30.09 6.52 30.09H24.82C25.66 30.09 26.34 29.41 26.34 28.57C26.34 27.73 25.66 27.04 24.82 27.04Z" fill="url(#paint1_linear_18_32248)"/>
<path d="M24.82 27.04H6.52C5.68 27.04 5 27.73 5 28.57C5 29.41 5.68 30.09 6.52 30.09H24.82C25.66 30.09 26.34 29.41 26.34 28.57C26.34 27.73 25.66 27.04 24.82 27.04Z" fill="url(#paint2_radial_18_32248)"/>
<path d="M24.82 27.04H6.52C5.68 27.04 5 27.73 5 28.57C5 29.41 5.68 30.09 6.52 30.09H24.82C25.66 30.09 26.34 29.41 26.34 28.57C26.34 27.73 25.66 27.04 24.82 27.04Z" fill="url(#paint3_radial_18_32248)"/>
<path d="M24.74 5.09998H6.75V10.78H24.74V5.09998Z" fill="url(#paint4_linear_18_32248)"/>
<path d="M24.74 20.0601H6.75V27.0401H24.74V20.0601Z" fill="url(#paint5_linear_18_32248)"/>
<path fill-rule="evenodd" clip-rule="evenodd" d="M21.5964 21.0601C20.1358 22.6288 18.0525 23.61 15.74 23.61C13.4275 23.61 11.3442 22.6288 9.88362 21.0601H6.75V10.0701H9.96855C11.4244 8.55379 13.472 7.60999 15.74 7.60999C18.008 7.60999 20.0556 8.55379 21.5114 10.0701H24.74V21.0601H21.5964Z" fill="url(#paint6_linear_18_32248)"/>
<path d="M17.31 12.72H14.17C11.99 12.72 10.22 14.49 10.22 16.67C10.22 18.85 11.99 20.62 14.17 20.62H17.31C19.49 20.62 21.26 18.85 21.26 16.67C21.26 14.49 19.5 12.72 17.31 12.72Z" fill="url(#paint7_linear_18_32248)"/>
<path fill-rule="evenodd" clip-rule="evenodd" d="M19.79 10.62H17.51C16.7894 10.62 16.1498 10.9577 15.7424 11.482C15.3338 10.9634 14.7003 10.63 13.99 10.63H11.7C11.7 11.86 12.7 12.86 13.94 12.86H16.22C16.22 12.8567 16.22 12.8533 16.22 12.85H17.56C18.79 12.85 19.79 11.85 19.79 10.62Z" fill="url(#paint8_linear_18_32248)"/>
<path d="M24.82 2H6.52C5.68 2 5 2.69342 5 3.54999C5 4.40656 5.68 5.09998 6.52 5.09998H24.82C25.66 5.09998 26.34 4.40656 26.34 3.54999C26.34 2.69342 25.66 2 24.82 2Z" fill="url(#paint9_linear_18_32248)"/>
<path d="M24.82 2H6.52C5.68 2 5 2.69342 5 3.54999C5 4.40656 5.68 5.09998 6.52 5.09998H24.82C25.66 5.09998 26.34 4.40656 26.34 3.54999C26.34 2.69342 25.66 2 24.82 2Z" fill="url(#paint10_linear_18_32248)"/>
<path d="M24.82 2H6.52C5.68 2 5 2.69342 5 3.54999C5 4.40656 5.68 5.09998 6.52 5.09998H24.82C25.66 5.09998 26.34 4.40656 26.34 3.54999C26.34 2.69342 25.66 2 24.82 2Z" fill="url(#paint11_radial_18_32248)"/>
<path d="M24.82 2H6.52C5.68 2 5 2.69342 5 3.54999C5 4.40656 5.68 5.09998 6.52 5.09998H24.82C25.66 5.09998 26.34 4.40656 26.34 3.54999C26.34 2.69342 25.66 2 24.82 2Z" fill="url(#paint12_radial_18_32248)"/>
<defs>
<linearGradient id="paint0_linear_18_32248" x1="5" y1="30.09" x2="26.34" y2="30.09" gradientUnits="userSpaceOnUse">
<stop stop-color="#9C9BA0"/>
<stop offset="1" stop-color="#CACACD"/>
</linearGradient>
<linearGradient id="paint1_linear_18_32248" x1="15.67" y1="27.04" x2="15.67" y2="30.09" gradientUnits="userSpaceOnUse">
<stop offset="0.201614" stop-color="#C595F4" stop-opacity="0"/>
<stop offset="1" stop-color="#C495F3"/>
</linearGradient>
<radialGradient id="paint2_radial_18_32248" cx="0" cy="0" r="1" gradientUnits="userSpaceOnUse" gradientTransform="translate(22.6875 27.655) rotate(88.5297) scale(2.43588 12.0055)">
<stop stop-color="#DFDCE8"/>
<stop offset="1" stop-color="#D4D1DD" stop-opacity="0"/>
</radialGradient>
<radialGradient id="paint3_radial_18_32248" cx="0" cy="0" r="1" gradientUnits="userSpaceOnUse" gradientTransform="translate(22.1875 28.1469) rotate(90) scale(1.04537 8.5)">
<stop stop-color="#EEEAF7"/>
<stop offset="1" stop-color="#EEEBF7" stop-opacity="0"/>
</radialGradient>
<linearGradient id="paint4_linear_18_32248" x1="6.75" y1="10.78" x2="24.74" y2="10.78" gradientUnits="userSpaceOnUse">
<stop stop-color="#A84348"/>
<stop offset="0.430795" stop-color="#D83165"/>
<stop offset="0.715675" stop-color="#F25488"/>
<stop offset="1" stop-color="#EE5295"/>
</linearGradient>
<linearGradient id="paint5_linear_18_32248" x1="6.75" y1="27.0401" x2="24.74" y2="27.0401" gradientUnits="userSpaceOnUse">
<stop stop-color="#A84348"/>
<stop offset="0.396053" stop-color="#D83165"/>
<stop offset="0.743469" stop-color="#FF558E"/>
<stop offset="1" stop-color="#EE5295"/>
</linearGradient>
<linearGradient id="paint6_linear_18_32248" x1="6.75" y1="16.875" x2="24.74" y2="16.875" gradientUnits="userSpaceOnUse">
<stop stop-color="#9B96A5"/>
<stop offset="0.458588" stop-color="#C8BBDC"/>
<stop offset="0.73652" stop-color="#E8E0F7"/>
<stop offset="0.96234" stop-color="#E1DBED"/>
<stop offset="1" stop-color="#D7D4DF"/>
</linearGradient>
<linearGradient id="paint7_linear_18_32248" x1="10.22" y1="16.67" x2="21.26" y2="16.67" gradientUnits="userSpaceOnUse">
<stop stop-color="#BC2E36"/>
<stop offset="1" stop-color="#FF51A6"/>
</linearGradient>
<linearGradient id="paint8_linear_18_32248" x1="15.745" y1="10.62" x2="15.745" y2="12.86" gradientUnits="userSpaceOnUse">
<stop stop-color="#2FB671"/>
<stop offset="1" stop-color="#56D69B"/>
</linearGradient>
<linearGradient id="paint9_linear_18_32248" x1="5" y1="5.09998" x2="26.34" y2="5.09998" gradientUnits="userSpaceOnUse">
<stop stop-color="#9C9BA0"/>
<stop offset="1" stop-color="#CACACD"/>
</linearGradient>
<linearGradient id="paint10_linear_18_32248" x1="15.67" y1="2" x2="15.67" y2="5.09998" gradientUnits="userSpaceOnUse">
<stop offset="0.201614" stop-color="#BCA2D8" stop-opacity="0"/>
<stop offset="1" stop-color="#B196CC"/>
</linearGradient>
<radialGradient id="paint11_radial_18_32248" cx="0" cy="0" r="1" gradientUnits="userSpaceOnUse" gradientTransform="translate(22.6875 2.625) rotate(88.5534) scale(2.47576 12.0056)">
<stop stop-color="#DFDCE8"/>
<stop offset="1" stop-color="#D4D1DD" stop-opacity="0"/>
</radialGradient>
<radialGradient id="paint12_radial_18_32248" cx="0" cy="0" r="1" gradientUnits="userSpaceOnUse" gradientTransform="translate(22.1875 3.125) rotate(90) scale(1.0625 8.5)">
<stop stop-color="#EEEAF7"/>
<stop offset="1" stop-color="#EEEBF7" stop-opacity="0"/>
</radialGradient>
</defs>
</svg>

<svg width="100%" height="100%" viewBox="0 0 32 32" xmlns="http://www.w3.org/2000/svg"><path fill="url(#a)" d="M24.82 27.04H6.52c-.84 0-1.52.69-1.52 1.53s.68 1.52 1.52 1.52h18.3c.84 0 1.52-.68 1.52-1.52s-.68-1.53-1.52-1.53"/><path fill="url(#b)" d="M24.82 27.04H6.52c-.84 0-1.52.69-1.52 1.53s.68 1.52 1.52 1.52h18.3c.84 0 1.52-.68 1.52-1.52s-.68-1.53-1.52-1.53"/><path fill="url(#c)" d="M24.82 27.04H6.52c-.84 0-1.52.69-1.52 1.53s.68 1.52 1.52 1.52h18.3c.84 0 1.52-.68 1.52-1.52s-.68-1.53-1.52-1.53"/><path fill="url(#d)" d="M24.82 27.04H6.52c-.84 0-1.52.69-1.52 1.53s.68 1.52 1.52 1.52h18.3c.84 0 1.52-.68 1.52-1.52s-.68-1.53-1.52-1.53"/><path fill="url(#e)" d="M24.74 5.1H6.75v5.68h17.99z"/><path fill="url(#f)" d="M24.74 20.06H6.75v6.98h17.99z"/><path fill="url(#g)" fill-rule="evenodd" d="M21.596 21.06a7.98 7.98 0 0 1-5.856 2.55 7.98 7.98 0 0 1-5.856-2.55H6.75V10.07h3.219a7.98 7.98 0 0 1 5.771-2.46c2.268 0 4.316.944 5.771 2.46h3.229v10.99z" clip-rule="evenodd"/><path fill="url(#h)" d="M17.31 12.72h-3.14c-2.18 0-3.95 1.77-3.95 3.95s1.77 3.95 3.95 3.95h3.14c2.18 0 3.95-1.77 3.95-3.95s-1.76-3.95-3.95-3.95"/><path fill="url(#i)" fill-rule="evenodd" d="M19.79 10.62h-2.28c-.72 0-1.36.338-1.768.862a2.23 2.23 0 0 0-1.752-.852H11.7c0 1.23 1 2.23 2.24 2.23h2.28v-.01h1.34c1.23 0 2.23-1 2.23-2.23" clip-rule="evenodd"/><path fill="url(#j)" d="M24.82 2H6.52C5.68 2 5 2.693 5 3.55S5.68 5.1 6.52 5.1h18.3c.84 0 1.52-.693 1.52-1.55S25.66 2 24.82 2"/><path fill="url(#k)" d="M24.82 2H6.52C5.68 2 5 2.693 5 3.55S5.68 5.1 6.52 5.1h18.3c.84 0 1.52-.693 1.52-1.55S25.66 2 24.82 2"/><path fill="url(#l)" d="M24.82 2H6.52C5.68 2 5 2.693 5 3.55S5.68 5.1 6.52 5.1h18.3c.84 0 1.52-.693 1.52-1.55S25.66 2 24.82 2"/><path fill="url(#m)" d="M24.82 2H6.52C5.68 2 5 2.693 5 3.55S5.68 5.1 6.52 5.1h18.3c.84 0 1.52-.693 1.52-1.55S25.66 2 24.82 2"/><defs><linearGradient id="a" x1="5" x2="26.34" y1="30.09" y2="30.09" gradientUnits="userSpaceOnUse"><stop stop-color="#9C9BA0"/><stop offset="1" stop-color="#CACACD"/></linearGradient><linearGradient id="b" x1="15.67" x2="15.67" y1="27.04" y2="30.09" gradientUnits="userSpaceOnUse"><stop offset=".202" stop-color="#C595F4" stop-opacity="0"/><stop offset="1" stop-color="#C495F3"/></linearGradient><linearGradient id="e" x1="6.75" x2="24.74" y1="10.78" y2="10.78" gradientUnits="userSpaceOnUse"><stop stop-color="#A84348"/><stop offset=".431" stop-color="#D83165"/><stop offset=".716" stop-color="#F25488"/><stop offset="1" stop-color="#EE5295"/></linearGradient><linearGradient id="f" x1="6.75" x2="24.74" y1="27.04" y2="27.04" gradientUnits="userSpaceOnUse"><stop stop-color="#A84348"/><stop offset=".396" stop-color="#D83165"/><stop offset=".743" stop-color="#FF558E"/><stop offset="1" stop-color="#EE5295"/></linearGradient><linearGradient id="g" x1="6.75" x2="24.74" y1="16.875" y2="16.875" gradientUnits="userSpaceOnUse"><stop stop-color="#9B96A5"/><stop offset=".459" stop-color="#C8BBDC"/><stop offset=".737" stop-color="#E8E0F7"/><stop offset=".962" stop-color="#E1DBED"/><stop offset="1" stop-color="#D7D4DF"/></linearGradient><linearGradient id="h" x1="10.22" x2="21.26" y1="16.67" y2="16.67" gradientUnits="userSpaceOnUse"><stop stop-color="#BC2E36"/><stop offset="1" stop-color="#FF51A6"/></linearGradient><linearGradient id="i" x1="15.745" x2="15.745" y1="10.62" y2="12.86" gradientUnits="userSpaceOnUse"><stop stop-color="#2FB671"/><stop offset="1" stop-color="#56D69B"/></linearGradient><linearGradient id="j" x1="5" x2="26.34" y1="5.1" y2="5.1" gradientUnits="userSpaceOnUse"><stop stop-color="#9C9BA0"/><stop offset="1" stop-color="#CACACD"/></linearGradient><linearGradient id="k" x1="15.67" x2="15.67" y1="2" y2="5.1" gradientUnits="userSpaceOnUse"><stop offset=".202" stop-color="#BCA2D8" stop-opacity="0"/><stop offset="1" stop-color="#B196CC"/></linearGradient><radialGradient id="c" cx="0" cy="0" r="1" gradientTransform="matrix(.0625 2.43508 -12.00155 .30805 22.688 27.655)" gradientUnits="userSpaceOnUse"><stop stop-color="#DFDCE8"/><stop offset="1" stop-color="#D4D1DD" stop-opacity="0"/></radialGradient><radialGradient id="d" cx="0" cy="0" r="1" gradientTransform="matrix(0 1.04537 -8.5 0 22.188 28.147)" gradientUnits="userSpaceOnUse"><stop stop-color="#EEEAF7"/><stop offset="1" stop-color="#EEEBF7" stop-opacity="0"/></radialGradient><radialGradient id="l" cx="0" cy="0" r="1" gradientTransform="matrix(.0625 2.47497 -12.00177 .30308 22.688 2.625)" gradientUnits="userSpaceOnUse"><stop stop-color="#DFDCE8"/><stop offset="1" stop-color="#D4D1DD" stop-opacity="0"/></radialGradient><radialGradient id="m" cx="0" cy="0" r="1" gradientTransform="matrix(0 1.0625 -8.5 0 22.188 3.125)" gradientUnits="userSpaceOnUse"><stop stop-color="#EEEAF7"/><stop offset="1" stop-color="#EEEBF7" stop-opacity="0"/></radialGradient></defs></svg>
